X: 78
T: Dear Catholic Brother
%R: waltz
B: "The Hibernian Muse" p.48 #2
F: http://imslp.org/wiki/The_Hibernian_Muse_%28Various%29
Z: 2015 John Chambers <jc:trillian.mit.edu>
P: No. LXXVIII.
M: 3/4
L: 1/4
K: Am
% - - - - - - - - - - - - - - - - - - - - - - - - - - - - -
V: 1
E |\
AAA | AAA/G/ | FFF | F2F |\
EEE | EAA | ADD | D2d/e/ |\
fg/f/e/d/ | eee/d/ | ccc | c2A |\
ddd | d2e/d/ | cAA | A2 |]
% - - - - - - - - - - - - - - - - - - - - - - - - - - - - -
V: 2 clef=bass middle=d
z |\
Ace | aAc | dAF | D2z |\
Ace | aAc | dAF | D2z |
bgb | c'cg | c'ge | c2z |\
dfa | f2e | aAA | A2 |]

%%sep 2 1 500
%%sep 1 1 500

